X: 28907
T: Na Ceannabháin Bhána
R: slip jig
M: 9/8
K: Gmajor
B2 G AGE GED|EGD DEG A2 c|BGG AGE GED|EGD DEF G2 A:|
Bdd edd BGG|Bdd edB A2 c|Bdd edd B2A|GED DEF G3:|
c|Bdd edd BGF|GBd gdB A2 c|Bdd egd B2 A|GED DEF G3||

